tools/download-figma-icons/icons/outlined-medium/video-consultation.svg

<svg width="24" height="24" viewBox="0 0 24 24" fill="none" xmlns="http://www.w3.org/2000/svg">
<path d="M8.24243 13.5043C8.65493 13.5043 8.99243 13.1667 8.99243 12.754C8.99243 11.5161 9.93743 10.5032 11.0999 10.5032H12.8849C14.0474 10.5032 14.9924 11.5161 14.9924 12.754C14.9924 13.1667 15.3299 13.5043 15.7424 13.5043C16.1549 13.5043 16.4924 13.1667 16.4924 12.754C16.4924 11.231 15.6074 9.91798 14.3549 9.33277C14.7524 8.82258 14.9924 8.19234 14.9924 7.50209C14.9924 5.84397 13.6499 4.50098 11.9924 4.50098C10.3349 4.50098 8.99243 5.84397 8.99243 7.50209C8.99243 8.19234 9.23993 8.82258 9.62993 9.33277C8.36993 9.91798 7.49243 11.231 7.49243 12.754C7.49243 13.1667 7.82993 13.5043 8.24243 13.5043ZM11.9924 6.00153C12.8174 6.00153 13.4924 6.67678 13.4924 7.50209C13.4924 8.32739 12.8174 9.00264 11.9924 9.00264C11.1674 9.00264 10.4924 8.32739 10.4924 7.50209C10.4924 6.67678 11.1674 6.00153 11.9924 6.00153Z" fill="black"/>
<path d="M23.985 19.4764C23.985 19.4014 23.97 19.3188 23.94 19.2513C23.94 19.2363 23.9325 19.2213 23.925 19.2063C23.925 19.1988 23.925 19.1913 23.9175 19.1838L21.7425 14.7646V3.74305C21.7425 2.91775 21.075 2.25 20.25 2.25H3.735C2.91 2.25 2.2425 2.91775 2.2425 3.74305V14.7571L0.0675 19.1763C0.0675 19.1763 0.0675 19.1913 0.06 19.1988C0.06 19.2138 0.0525 19.2288 0.045 19.2438C0.015 19.3188 0 19.3939 0 19.4689C0 19.4764 0 19.4914 0 19.4989V21.0069C0 21.8323 0.6675 22.5 1.4925 22.5H22.5075C23.3325 22.5 24 21.8323 24 21.0069V19.4989C24 19.4989 24 19.4764 24 19.4689L23.985 19.4764ZM20.2425 3.74305V14.2544H3.7425V3.75056L20.2425 3.74305ZM3.42 15.755H20.5575L22.035 18.7561H1.95L3.4275 15.755H3.42ZM22.4925 21.0069H1.4925V20.2567H22.4925V21.0069Z" fill="black"/>
</svg>

<svg width="24" height="24" viewBox="0 0 24 24" fill="none" xmlns="http://www.w3.org/2000/svg"><path d="M8.242 13.504c.413 0 .75-.337.75-.75 0-1.238.945-2.25 2.108-2.25h1.785c1.162 0 2.107 1.012 2.107 2.25 0 .413.338.75.75.75.413 0 .75-.337.75-.75 0-1.523-.885-2.836-2.137-3.421.397-.51.637-1.14.637-1.83a3 3 0 1 0-6 0c0 .69.248 1.32.638 1.83-1.26.585-2.138 1.898-2.138 3.421 0 .413.338.75.75.75Zm3.75-7.502c.825 0 1.5.675 1.5 1.5s-.675 1.5-1.5 1.5-1.5-.675-1.5-1.5.675-1.5 1.5-1.5Z" fill="currentColor"/><path d="M23.985 19.476a.574.574 0 0 0-.045-.225c0-.015-.008-.03-.015-.045 0-.007 0-.015-.008-.022l-2.175-4.42V3.745c0-.826-.667-1.494-1.492-1.494H3.735c-.825 0-1.492.668-1.492 1.493v11.014l-2.175 4.42s0 .014-.008.022a.1.1 0 0 1-.015.045.602.602 0 0 0-.045.225v1.538c0 .825.667 1.493 1.492 1.493h21.015c.825 0 1.493-.668 1.493-1.493V19.47l-.015.007ZM20.243 3.743v10.511h-16.5V3.751l16.5-.008ZM3.42 15.755h17.138l1.477 3.001H1.95l1.478-3.001H3.42Zm19.072 5.252h-21v-.75h21v.75Z" fill="currentColor"/></svg>
